X: 117
M: C
L: 1/16
K: D
(f>e) | {de}f2 A2 A2 B2 (d3e) d2 f2 |
{f}(e3f) (gfed) {de}f2 B2 B2 (f3e) | {de}f2 A2 A2 B2
(d3e) d2 (d'>a) | b2 a2 (bc'd'a) f2 d2 d2 |][|
a2 | (ba) (b>c') d'3 f (gf) (ga) b3 d |
(e>d) (e>f) (gf) (ed) {de}f2 B2 B2 (f>e) |
{de}f2 A2 A2 B2 d3 e d2 (d'>a) |
{c'}(b2a2) (bc'd'a) f2 d2 d2 |]

